src/assets/icons/mouse-over.svg

<?xml version="1.0" encoding="UTF-8"?>
<svg width="24px" height="24px" viewBox="0 0 24 24" version="1.1" xmlns="http://www.w3.org/2000/svg" xmlns:xlink="http://www.w3.org/1999/xlink">
    <!-- Generator: Sketch 53.2 (72643) - https://sketchapp.com -->
    <title>Icons / 24px / Mouse over</title>
    <desc>Created with Sketch.</desc>
    <g id="Icons-/-24px-/-Mouse-over" stroke="none" stroke-width="1" fill="none" fill-rule="evenodd">
        <path d="M6.59611847,16.5409027 C6.43457234,16.7074755 6.22012653,16.8126841 5.98952489,16.8385015 C5.44066919,16.8999496 4.94592021,16.5048276 4.8844721,15.955972 L4.00621145,8.11133043 C3.97835614,7.86252634 4.04484109,7.61232418 4.19252827,7.41016608 C4.51832254,6.96421033 5.14394955,6.8668002 5.58990531,7.19259447 L11.9725099,11.8554247 C12.1610234,11.9931438 12.2954104,12.1924799 12.3523784,12.4188834 C12.4871446,12.9544733 12.1622127,13.4979042 11.6266228,13.6326703 L9.7082793,14.1153675 L11.8917142,17.8971877 C12.1670591,18.374099 12.0036806,18.9839222 11.5267888,19.2593009 C11.5267684,19.2593127 11.526748,19.2593245 11.5267276,19.2593363 C11.04986,19.5346559 10.4400918,19.371269 10.1647721,18.8944014 L7.98133727,15.1125813 L6.59611847,16.5409027 Z M12.5808871,7.77506402 L19.5808871,7.77506402 C20.1331718,7.77506402 20.5808871,8.22277927 20.5808871,8.77506402 C20.5808871,9.32734877 20.1331718,9.77506402 19.5808871,9.77506402 L12.5808871,9.77506402 C12.0286023,9.77506402 11.5808871,9.32734877 11.5808871,8.77506402 C11.5808871,8.22277927 12.0286023,7.77506402 12.5808871,7.77506402 Z M15.5808871,11.775064 L17.5808871,11.775064 C18.1331718,11.775064 18.5808871,12.2227793 18.5808871,12.775064 C18.5808871,13.3273488 18.1331718,13.775064 17.5808871,13.775064 L15.5808871,13.775064 C15.0286023,13.775064 14.5808871,13.3273488 14.5808871,12.775064 C14.5808871,12.2227793 15.0286023,11.775064 15.5808871,11.775064 Z M14.5808871,15.775064 L15.5808871,15.775064 C16.1331718,15.775064 16.5808871,16.2227793 16.5808871,16.775064 C16.5808871,17.3273488 16.1331718,17.775064 15.5808871,17.775064 L14.5808871,17.775064 C14.0286023,17.775064 13.5808871,17.3273488 13.5808871,16.775064 C13.5808871,16.2227793 14.0286023,15.775064 14.5808871,15.775064 Z" id="Combined-Shape" fill="#262D38"></path>
    </g>
</svg>

<svg viewBox="0 0 24 24" xmlns="http://www.w3.org/2000/svg"><path d="M6.6 16.54a1 1 0 0 1-1.72-.58L4.01 8.1a1 1 0 0 1 1.58-.92l6.38 4.67a1 1 0 0 1-.34 1.77l-1.92.49 2.18 3.78a1 1 0 1 1-1.73 1L7.98 15.1 6.6 16.54zm5.98-8.76h7a1 1 0 0 1 0 2h-7a1 1 0 1 1 0-2zm3 4h2a1 1 0 0 1 0 2h-2a1 1 0 1 1 0-2zm-1 4h1a1 1 0 0 1 0 2h-1a1 1 0 1 1 0-2z"/></svg>
